logos/redis.svg

<?xml version="1.0" encoding="UTF-8" standalone="no" ?>
<svg width="256px" height="220px" viewBox="0 0 256 220" version="1.1" xmlns="http://www.w3.org/2000/svg" xmlns:xlink="http://www.w3.org/1999/xlink" preserveAspectRatio="xMidYMid">
    <g>
        <path d="M245.969687,168.943256 C232.308259,176.064479 161.536048,205.163388 146.468577,213.017633 C131.402107,220.873879 123.031844,220.797876 111.129473,215.107699 C99.2271007,209.417521 23.9127473,178.99557 10.3463234,172.511368 C3.56511141,169.270267 0,166.535181 0,163.9511 L0,138.075292 C0,138.075292 98.0490639,116.729625 113.878559,111.051447 C129.707053,105.372269 135.199225,105.167264 148.669646,110.101418 C162.141067,115.036572 242.686583,129.569026 256,134.445178 C256,134.445178 255.993999,157.5559 255.993999,159.954975 C255.996,162.513055 252.923904,165.319143 245.969687,168.943256" fill="#912626"></path>
        <path d="M245.964922,143.220067 C232.303935,150.33806 161.534003,179.438032 146.467017,187.292024 C131.401031,195.149018 123.031039,195.072017 111.12905,189.382023 C99.2260618,183.696028 23.9151336,153.269057 10.3491466,146.788063 C-3.21684053,140.303069 -3.50184026,135.840074 9.82514705,130.622079 C23.1511343,125.402084 98.0490629,96.0171117 113.880047,90.3381172 C129.708033,84.6611226 135.199028,84.4541228 148.669014,89.3901181 C162.140002,94.3241134 232.487935,122.325087 245.799922,127.200082 C259.11491,132.081078 259.625908,136.099073 245.964922,143.220067" fill="#C6302B"></path>
        <path d="M245.969687,127.074354 C232.308259,134.195577 161.536048,163.294486 146.468577,171.151732 C131.402107,179.004977 123.031844,178.928975 111.129473,173.238797 C99.2261007,167.551619 23.9127473,137.126668 10.3463234,130.642465 C3.56511141,127.401364 0,124.669279 0,122.085199 L0,96.2063895 C0,96.2063895 98.0490639,74.8617226 113.878559,69.182545 C129.707053,63.5043676 135.199225,63.2983612 148.669646,68.2325154 C162.141067,73.1676697 242.686583,87.6971237 256,92.5742761 C256,92.5742761 255.993999,115.684998 255.993999,118.087073 C255.996,120.644153 252.923904,123.450241 245.969687,127.074354" fill="#912626"></path>
        <path d="M245.964922,101.351164 C232.303935,108.471157 161.534003,137.569129 146.467017,145.426122 C131.401031,153.280114 123.031039,153.203114 111.12905,147.51312 C99.2260618,141.827125 23.9151336,111.401154 10.3491466,104.91916 C-3.21684053,98.4361664 -3.50184026,93.9721706 9.82514705,88.7521756 C23.1511343,83.5351806 98.0490629,54.1482087 113.880047,48.4702141 C129.708033,42.7922195 135.199028,42.5862197 148.669014,47.521215 C162.140002,52.4552102 232.487935,80.4541835 245.799922,85.3311789 C259.11491,90.2101742 259.625908,94.2301704 245.964922,101.350163 L245.964922,101.351164" fill="#C6302B"></path>
        <path d="M245.969687,83.6525661 C232.308259,90.7737887 161.536048,119.873698 146.468577,127.730944 C131.402107,135.585189 123.031844,135.508187 111.129473,129.818008 C99.2261007,124.130831 23.9127473,93.7048802 10.3463234,87.2226777 C3.56511141,83.9805764 0,81.2474909 0,78.6654102 L0,52.7856015 C0,52.7856015 98.0490639,31.4419345 113.878559,25.7637571 C129.707053,20.0845797 135.199225,19.8795733 148.669646,24.8137275 C162.141067,29.7488817 242.686583,44.2783357 256,49.1554881 C256,49.1554881 255.993999,72.2662103 255.993999,74.6672853 C255.996,77.2223652 252.923904,80.0284528 245.969687,83.6525661" fill="#912626"></path>
        <path d="M245.964922,57.929387 C232.303935,65.0493802 161.534003,94.1493524 146.467017,102.004345 C131.401031,109.858338 123.031039,109.781338 111.12905,104.093343 C99.2270617,98.4053484 23.9151336,67.9813773 10.3491466,61.4983836 C-3.21684053,55.0153898 -3.50184026,50.550394 9.82514705,45.331399 C23.1511343,40.113404 98.0490629,10.729432 113.880047,5.04943744 C129.708033,-0.629557148 135.199028,-0.833556953 148.669014,4.10143834 C162.140002,9.03643363 232.487935,37.0354069 245.799922,41.9124022 C259.11491,46.7883976 259.625908,50.8093938 245.964922,57.929387" fill="#C6302B"></path>
        <path d="M159.282977,32.7570853 L137.273922,35.0422326 L132.346419,46.8976124 L124.387597,33.667969 L98.973147,31.383814 L117.936992,24.5452403 L112.247442,14.0472558 L130.001736,20.9910078 L146.739969,15.5108217 L142.21631,26.3660155 L159.282977,32.7570853" fill="#FFFFFF"></path>
        <path d="M131.03169,90.2747287 L89.9546047,73.2378295 L148.815752,64.2034109 L131.03169,90.2747287" fill="#FFFFFF"></path>
        <path d="M74.0816124,39.3466047 C91.4568682,39.3466047 105.541829,44.8069457 105.541829,51.5413333 C105.541829,58.2767132 91.4568682,63.736062 74.0816124,63.736062 C56.7073488,63.736062 42.6213953,58.2767132 42.6213953,51.5413333 C42.6213953,44.8069457 56.7073488,39.3466047 74.0816124,39.3466047" fill="#FFFFFF"></path>
        <path d="M185.29476,35.9977674 L220.130605,49.7642171 L185.324527,63.5167752 L185.29476,35.9977674" fill="#621B1C"></path>
        <path d="M146.754853,51.2426667 L185.29476,35.9977674 L185.324527,63.5167752 L181.546047,64.9952248 L146.754853,51.2426667" fill="#9A2928"></path>
    </g>
</svg>

<svg width="256" height="220" xmlns="http://www.w3.org/2000/svg" preserveAspectRatio="xMidYMid">
	<path d="M245.97 168.943c-13.662 7.121-84.434 36.22-99.501 44.075-15.067 7.856-23.437 7.78-35.34 2.09-11.902-5.69-87.216-36.112-100.783-42.597C3.566 169.271 0 166.535 0 163.951v-25.876s98.05-21.345 113.879-27.024c15.828-5.679 21.32-5.884 34.79-.95 13.472 4.936 94.018 19.468 107.331 24.344l-.006 25.51c.002 2.558-3.07 5.364-10.024 8.988" fill="#912626"/>
	<path d="M245.965 143.22c-13.661 7.118-84.431 36.218-99.498 44.072-15.066 7.857-23.436 7.78-35.338 2.09-11.903-5.686-87.214-36.113-100.78-42.594-13.566-6.485-13.85-10.948-.524-16.166 13.326-5.22 88.224-34.605 104.055-40.284 15.828-5.677 21.319-5.884 34.789-.948 13.471 4.934 83.819 32.935 97.13 37.81 13.316 4.881 13.827 8.9.166 16.02" fill="#C6302B"/>
	<path d="M245.97 127.074c-13.662 7.122-84.434 36.22-99.501 44.078-15.067 7.853-23.437 7.777-35.34 2.087-11.903-5.687-87.216-36.112-100.783-42.597C3.566 127.402 0 124.67 0 122.085V96.206s98.05-21.344 113.879-27.023c15.828-5.679 21.32-5.885 34.79-.95C162.142 73.168 242.688 87.697 256 92.574l-.006 25.513c.002 2.557-3.07 5.363-10.024 8.987" fill="#912626"/>
	<path d="M245.965 101.351c-13.661 7.12-84.431 36.218-99.498 44.075-15.066 7.854-23.436 7.777-35.338 2.087-11.903-5.686-87.214-36.112-100.78-42.594-13.566-6.483-13.85-10.947-.524-16.167C23.151 83.535 98.05 54.148 113.88 48.47c15.828-5.678 21.319-5.884 34.789-.949 13.471 4.934 83.819 32.933 97.13 37.81 13.316 4.88 13.827 8.9.166 16.02" fill="#C6302B"/>
	<path d="M245.97 83.653c-13.662 7.12-84.434 36.22-99.501 44.078-15.067 7.854-23.437 7.777-35.34 2.087-11.903-5.687-87.216-36.113-100.783-42.595C3.566 83.98 0 81.247 0 78.665v-25.88s98.05-21.343 113.879-27.021c15.828-5.68 21.32-5.884 34.79-.95C162.142 29.749 242.688 44.278 256 49.155l-.006 25.512c.002 2.555-3.07 5.361-10.024 8.986" fill="#912626"/>
	<path d="M245.965 57.93c-13.661 7.12-84.431 36.22-99.498 44.074-15.066 7.854-23.436 7.777-35.338 2.09C99.227 98.404 23.915 67.98 10.35 61.497-3.217 55.015-3.5 50.55 9.825 45.331 23.151 40.113 98.05 10.73 113.88 5.05c15.828-5.679 21.319-5.883 34.789-.948 13.471 4.935 83.819 32.934 97.13 37.811 13.316 4.876 13.827 8.897.166 16.017" fill="#C6302B"/>
	<path d="m159.283 32.757-22.01 2.285-4.927 11.856-7.958-13.23-25.415-2.284 18.964-6.839-5.69-10.498 17.755 6.944 16.738-5.48-4.524 10.855 17.067 6.391" fill="#FFF"/>
	<path d="M131.032 90.275 89.955 73.238l58.86-9.035-17.783 26.072" fill="#FFF"/>
	<path d="M74.082 39.347c17.375 0 31.46 5.46 31.46 12.194 0 6.736-14.085 12.195-31.46 12.195s-31.46-5.46-31.46-12.195c0-6.734 14.085-12.194 31.46-12.194" fill="#FFF"/>
	<path d="m185.295 35.998 34.836 13.766-34.806 13.753-.03-27.52" fill="#621B1C"/>
	<path d="m146.755 51.243 38.54-15.245.03 27.519-3.779 1.478-34.791-13.752" fill="#9A2928"/>
</svg>
